svg/image_album.svg

<?xml version="1.0" encoding="UTF-8"?><!DOCTYPE svg PUBLIC "-//W3C//DTD SVG 1.1//EN" "http://www.w3.org/Graphics/SVG/1.1/DTD/svg11.dtd"><svg xmlns="http://www.w3.org/2000/svg" xmlns:xlink="http://www.w3.org/1999/xlink" version="1.1" id="mdi-image-album" width="24" height="24" viewBox="0 0 24 24"><path d="M6,19L9,15.14L11.14,17.72L14.14,13.86L18,19H6M6,4H11V12L8.5,10.5L6,12M18,2H6A2,2 0 0,0 4,4V20A2,2 0 0,0 6,22H18A2,2 0 0,0 20,20V4A2,2 0 0,0 18,2Z" /></svg>

<svg xmlns="http://www.w3.org/2000/svg" viewBox="0 0 24 24"><path d="m6 19 3-3.86 2.14 2.58 3-3.86L18 19zM6 4h5v8l-2.5-1.5L6 12M18 2H6a2 2 0 0 0-2 2v16a2 2 0 0 0 2 2h12a2 2 0 0 0 2-2V4a2 2 0 0 0-2-2"/></svg>
